X: 042
T: South Sea
B: 204 Favourite Country Dances
N: Published by Straight & Skillern, London ca.1775
F: http://imslp.org/wiki/204_Favourite_Country_Dances_(Various) p.21 #42
Z: 2014 John Chambers <jc:trillian.mit.edu>
M: C
L: 1/8
K: F
% - - - - - - - - - - - - - - - - - - - - - - - - -
|:\
egec | fafd | egc=B | c/=B/c/d/ cc |\
egec | fafd | egc=B | c2c2 :|
|:\
ccBA | dddB | AGFE | F/E/F/G/ FF |\
ccBA | dddB | AGFE | F2F2 :|
% - - - - - - - - - - - - - - - - - - - - - - - - -
%%begintext align
%% Set all 4 change sides .| the same back
%% again :| gallop down 1 Cu. up again and
%% cast off .|: Right and Left at top :|:
%%endtext

%%sep 1 1 500
%%sep 1 1 500
